packages/gestalt-icons-android/vr-theme/ic_vr_sticker-board-large_gestalt.svg

<svg width="24" height="24" viewBox="0 0 24 24" fill="none" xmlns="http://www.w3.org/2000/svg">
<path fill-rule="evenodd" clip-rule="evenodd" d="M1 5C1 2.79086 2.79086 1 5 1H19C21.2091 1 23 2.79086 23 5V12.7574C23 13.8182 22.5786 14.8356 21.8284 15.5858L15.5858 21.8284C14.8356 22.5786 13.8182 23 12.7574 23H12V16C12 15.6547 12.0438 15.3196 12.126 15H7C5.89543 15 5 14.1046 5 13V7C5 5.89543 5.89543 5 7 5H17C18.1046 5 19 5.89543 19 7V12H20C20.5523 12 21 11.5523 21 11V5C21 3.89543 20.1046 3 19 3H5C3.89543 3 3 3.89543 3 5V19C3 20.1046 3.89543 21 5 21H10V23H5C2.79086 23 1 21.2091 1 19V5ZM17 12V7H7V13H13.3542C14.0593 12.3776 14.9856 12 16 12H17ZM20.5671 14C20.5197 14.0598 20.4687 14.1171 20.4142 14.1716L14.1716 20.4142C14.1171 20.4687 14.0598 20.5197 14 20.5671V16C14 14.8954 14.8954 14 16 14H20.5671Z" fill="black"/>
<path d="M10 19H5V17H10V19Z" fill="black"/>
</svg>

<svg xmlns="http://www.w3.org/2000/svg" width="24" height="24"><path d="M1 5a4 4 0 0 1 4-4h14a4 4 0 0 1 4 4v7.76a4 4 0 0 1-1.17 2.83l-6.24 6.24A4 4 0 0 1 12.76 23H12v-7q0-.52.13-1H7a2 2 0 0 1-2-2V7c0-1.1.9-2 2-2h10a2 2 0 0 1 2 2v5h1a1 1 0 0 0 1-1V5a2 2 0 0 0-2-2H5a2 2 0 0 0-2 2v14c0 1.1.9 2 2 2h5v2H5a4 4 0 0 1-4-4zm16 7V7H7v6h6.35A4 4 0 0 1 16 12zm-1 2a2 2 0 0 0-2 2v4.57l.17-.16 6.24-6.24.16-.17zm-6 5H5v-2h5z"/></svg>
